img/cab__balance-icon__03.svg

<svg width="30" height="27" viewBox="0 0 30 27" fill="none" xmlns="http://www.w3.org/2000/svg">
<path d="M28.152 0.718994H24.1344C23.6652 0.718994 23.2848 1.09941 23.2848 1.56863C23.2848 2.03786 23.6652 2.41828 24.1344 2.41828H27.3023V8.67322H24.1344C23.6652 8.67322 23.2848 9.05363 23.2848 9.52286C23.2848 9.99209 23.6652 10.3725 24.1344 10.3725H27.3023V16.6274H24.1344C23.6652 16.6274 23.2848 17.0079 23.2848 17.4771C23.2848 17.9463 23.6652 18.3267 24.1344 18.3267H27.3023V24.5817H24.1344C23.6652 24.5817 23.2848 24.9621 23.2848 25.4314C23.2848 25.9006 23.6652 26.281 24.1344 26.281H28.152C28.6212 26.281 29.0016 25.9006 29.0016 25.4314V1.56863C29.0016 1.09941 28.6212 0.718994 28.152 0.718994Z" fill="black"/>
<path d="M16.1854 6.41153L17.4401 1.79135C17.5095 1.5359 17.4559 1.26282 17.2951 1.05256C17.1344 0.842305 16.8848 0.718994 16.6202 0.718994H14.3254C12.9422 0.718994 11.6315 1.29188 10.6916 2.26551C9.75165 1.29194 8.441 0.718994 7.05784 0.718994H4.76313C4.4985 0.718994 4.24898 0.842305 4.08818 1.05256C3.92742 1.26282 3.87384 1.5359 3.94317 1.7913L5.08095 5.98099H4.31911C3.85515 5.98099 3.47768 5.60352 3.47768 5.13951C3.47768 4.67028 3.09727 4.28986 2.62804 4.28986C2.15881 4.28986 1.7784 4.67028 1.7784 5.13951C1.7784 6.29156 2.54931 7.26633 3.60218 7.57662C2.84226 8.24466 2.17677 9.01693 1.6305 9.87331C0.563752 11.5456 -0.000239745 13.4684 -0.000466316 15.4336C-0.00103274 20.6575 -0.00137269 23.2795 1.47026 24.7771C2.9479 26.281 5.52945 26.281 10.6726 26.281C15.8316 26.281 18.4211 26.281 19.9026 24.8022C21.3849 23.3228 21.3849 20.7378 21.3849 15.5877C21.3849 11.7955 19.4096 8.33999 16.1854 6.41153ZM7.0579 2.41828C8.2496 2.41828 9.36003 3.05936 9.95585 4.09145C10.1077 4.35432 10.3881 4.51627 10.6916 4.51627C10.9952 4.51627 11.2757 4.35432 11.4274 4.09145C12.0233 3.05936 13.1337 2.41828 14.3254 2.41828H15.509L14.5415 5.98093H6.84175L5.87429 2.41828H7.0579ZM18.7022 23.5995C17.7182 24.5817 15.2156 24.5817 10.6726 24.5817C6.15116 24.5817 3.66052 24.5817 2.68236 23.5861C1.69808 22.5844 1.69836 20.0445 1.69882 15.4339C1.69899 13.7929 2.17076 12.1861 3.06311 10.7871C3.89112 9.48904 5.04413 8.41889 6.40509 7.68027H14.9778C17.8865 9.25862 19.6855 12.2695 19.6855 15.5877C19.6856 20.1209 19.6856 22.618 18.7022 23.5995Z" fill="black"/>
<path d="M11.8262 15.2079C11.0575 14.9361 10.2074 14.6079 9.73082 14.2341C9.581 14.1167 9.5162 13.8476 9.5695 13.5647C9.59613 13.4236 9.72034 12.9518 10.203 12.8064C10.9951 12.5677 11.5386 12.8842 11.7354 13.0314C12.1114 13.3125 12.6437 13.2355 12.9247 12.8597C13.2056 12.4839 13.1288 11.9514 12.753 11.6704C12.5746 11.5371 12.1279 11.2448 11.4875 11.1028V10.757C11.4875 10.2878 11.1071 9.90738 10.6378 9.90738C10.1686 9.90738 9.7882 10.2878 9.7882 10.757V11.1583C9.76311 11.1653 9.73824 11.1718 9.71292 11.1794C8.78229 11.4597 8.08751 12.2531 7.89962 13.25C7.72669 14.1676 8.0265 15.057 8.68209 15.5712C9.22206 15.9948 9.96895 16.3537 11.2599 16.8101C12.1193 17.1139 12.1006 17.8094 12.0527 18.0943C11.9556 18.672 11.4696 19.2964 10.6322 19.3019C9.8112 19.3078 9.555 19.2668 8.92412 18.854C8.53136 18.5971 8.00481 18.7072 7.74793 19.0999C7.49106 19.4926 7.60112 20.0192 7.99382 20.2761C8.67427 20.7213 9.17641 20.9018 9.7882 20.9676V21.356C9.7882 21.8252 10.1686 22.2056 10.6378 22.2056C11.1071 22.2056 11.4875 21.8252 11.4875 21.356V20.886C11.9556 20.7572 12.3822 20.5218 12.7467 20.1867C13.2633 19.7121 13.612 19.069 13.7285 18.376C13.9654 16.967 13.2009 15.6938 11.8262 15.2079Z" fill="black"/>
</svg>

<svg width="30" height="27" fill="none" xmlns="http://www.w3.org/2000/svg"><path d="M28.152.719h-4.018a.85.85 0 000 1.7h3.168v6.254h-3.168a.85.85 0 000 1.7h3.168v6.254h-3.168a.85.85 0 000 1.7h3.168v6.255h-3.168a.85.85 0 000 1.699h4.018c.47 0 .85-.38.85-.85V1.57a.85.85 0 00-.85-.85zM16.185 6.412l1.255-4.62a.85.85 0 00-.82-1.073h-2.295a5.061 5.061 0 00-3.633 1.547A5.062 5.062 0 007.058.719H4.763a.85.85 0 00-.82 1.072l1.138 4.19h-.762a.842.842 0 01-.841-.841.85.85 0 00-1.7 0c0 1.152.771 2.126 1.824 2.437-.76.668-1.425 1.44-1.971 2.296A10.328 10.328 0 000 15.433c-.001 5.224-.001 7.846 1.47 9.344 1.478 1.504 4.06 1.504 9.203 1.504 5.159 0 7.748 0 9.23-1.479 1.482-1.48 1.482-4.064 1.482-9.214 0-3.792-1.975-7.248-5.2-9.176zM7.058 2.418c1.192 0 2.302.641 2.898 1.673a.85.85 0 001.471 0 3.356 3.356 0 012.898-1.673h1.184l-.968 3.563h-7.7l-.967-3.563h1.184zM18.702 23.6c-.984.983-3.486.983-8.03.983-4.52 0-7.011 0-7.99-.996-.984-1.002-.984-3.541-.983-8.152 0-1.641.472-3.248 1.364-4.647A9.128 9.128 0 016.405 7.68h8.573a8.965 8.965 0 014.708 7.908c0 4.533 0 7.03-.984 8.011z" fill="#000"/><path d="M11.826 15.208c-.769-.272-1.619-.6-2.095-.974-.15-.117-.215-.386-.162-.67.027-.14.151-.612.634-.758.792-.238 1.336.078 1.532.225a.85.85 0 101.018-1.36 3.39 3.39 0 00-1.265-.568v-.346a.85.85 0 00-1.7 0v.401l-.075.021c-.93.28-1.625 1.074-1.813 2.071-.173.918.127 1.807.782 2.321.54.424 1.287.783 2.578 1.24.86.303.84.998.793 1.283-.097.578-.583 1.202-1.42 1.208-.822.006-1.078-.035-1.709-.448a.85.85 0 10-.93 1.422c.68.445 1.182.626 1.794.692v.388a.85.85 0 001.7 0v-.47a3.041 3.041 0 001.259-.7 3.188 3.188 0 00.982-1.81c.236-1.409-.528-2.682-1.903-3.168z" fill="#000"/></svg>
